X: 17427
T: Highland Chluain Ard
R: polka
M: 2/4
K: Dmajor
A2 (3FED A>Bd>B|(3AAA G>F E>GF>E|D2 F>A B>G d2|1 (3efg f>e d>e:|
d2 (3fed a>d (3fed|e>gf>e d>AB>c|1 d2 (3fed a>d (3fed|(3efg f>e d>AB>c:|
2 d>ef>b a>f (3fed|e>gf>e d2||

